X:1
T:6 Songs, Op.6
T:Nachwirkung
T:3. Nachwirkung
T:Johannes Brahms
T:Alfred Meissner
T:6 Songs, Op.6
T:OpenScore (CC0) 
T:OpenScore (CC0) 
C:Johannes Brahms
Z:Alfred Meissner
Z:OpenScore (CC0)
Z:
%%score ( 1 2 ) { ( 3 5 ) | ( 4 6 ) }
L:1/8
Q:1/4=100
M:9/8
K:Ab
V:1 treble nm="Singstimme\nVoice"
V:2 treble 
V:3 treble nm="Pianoforte"
V:5 treble 
V:4 bass 
V:6 bass 
V:1
"^Poco agitato" z z2 z | z9 | z2 z z2!<(! c (cB) A!<)! | (!>!e3 B2) B!<(! d c B!<)! | %4
w: ||Sie ist _ ge-|gan- gen, die Won- nen ver-|
w: ||Und hab ich den|Tag _ mit An- dacht be-|
 !>!f3 c2!p! c (.c .e .d) | c3- c2 c (.c .e .d) | c3 c2 c (.c .B .c) | d3 d2 d (.c .d .c) | %8
w: san- ken, nun glü- hen die|Wan- gen, nun rin- nen die|Trä- nen, es schwan- ken die|kran- ken, die hei- ssen Ge-|
w: \- gon- nen, tag- ü- ber ge-|lebt _ in stil- lem Ent-|zü- cken, so leb ich jetzt|träu- mend, die Ar- beit ver-|
"^poco rit."[Q:1/4=95]"^T"!<(! B6-!<)![Q:1/4=85]"^T" B3[Q:1/4=90]"^T" | %9
w: dan- *|
w: \- säu- *|
!>(! B3!>)! z2[Q:1/4=100]"^a tempo" B!<(! (cB) A!<)! |!f!!>(! (!>!e3 B2)!>)! B!>(! d c B!>)! | %11
w: ken, es pocht _ das|Herz _ in Wün- schen und|
w: mend von dem, was sie|schenk- te in Wor- ten und|
!>(! f3!>)! c3 z2!f! c | (.=e3 .f3 ._e3) | (._d3!>(! .c3 .B3)!>)! | %14
w: Seh- nen, es|pocht _ das|Herz _ in|
w: Bli- cken, von|dem, was sie|schenk- te in|
"^rit."!p![Q:1/4=80]"^T" (.A3 .G3[Q:1/4=80]"^T" .F3) |!pp! (E6 A3-) | (A6 G3) | !fermata!A3- A z :| %18
w: Wün- schen und|Seh- *||nen. _|
w: Wor- ten und|Bli- *||cken. _|
[Q:1/4=100]"^T" z z2 z | z9 | z2 z z2 c!<(! c B A!<)! | !>!e3- e B B!<(! d c B!<)! | %22
w: ||So hän- gen noch|lang _ nach dem Schei- den des|
w: ||||
!f! !>!f3 c2!p! c (.c .e .d) | c3 c2 c (.c .e .d) | c3 c2 c (.c .B .c) | d3 d2 d (.c .d .c) | %26
w: Ta- ges in säu- seln- der|Nacht- luft, beim säu- seln- den|Win- de die Bien- en, wie|trun- ken und won- ne- ver-|
w: ||||
"^poco rit."[Q:1/4=95]"^T"!<(! B6-[Q:1/4=88]"^T" B3!<)![Q:1/4=90]"^T" | %27
w: sun- *|
w: |
!>(! B3!>)! z2[Q:1/4=100]"^a tempo"!<(! B c B A!<)! |!f!!>(! e3 B2!>)! B!<(! d c B!<)! | %29
w: ken an zit- tern- den|Blü- ten der duf- ti- gen|
w: ||
!>(! f3 c3!>)! z2!f! c | (.=e3 .f3 ._e3) |!>(! (.d3 .c3 .B3)!>)! | %32
w: Lin- de, an|zit- tern- den|Blü- ten der|
w: |||
"^rit."!p![Q:1/4=95]"^T" (.A3[Q:1/4=90]"^T" .G3[Q:1/4=85]"^T" .F3) | %33
w: duf- ti- gen|
w: |
!pp![Q:1/4=80]"^T" (E6!>(! A3-) | (A6 G3)!>)! | !fermata!A3- A z |] %36
w: Lin- *||de. _|
w: |||
V:2
 x4 | x9 | x2 x x2 x c B x | x9 | x9 | x9 | x9 | x9 | x9 | x3 x2 x c B x | x9 | x9 | x9 | x9 | x9 | %15
 x9 | x9 | x5 :| x4 | x9 | x9 | x9 | x9 | x9 | x9 | x9 | x9 | x9 | x9 | x9 | x9 | x9 | x9 | x9 | %34
 x9 | x5 |] %36
V:3
!f! c (cBA) | !>!e6-!>(! e3- | e3!>)! z2 [EAc]!<(! [EAc][EGB][EA]!<)! | %3
!f!!>(! e3 B3!>)!!<(! [FBd][F=Ac][FB]!<)! |!f! f3 c3!p! (.[=Ac].[ce].[Bd]) | %5
 (.[=Ac].[Ac].[Ac]) (.[Ac].[Ac].[Ac]) (.[Ac].[ce].[Bd]) | %6
 (.[=Ac].[Ac].[Ac]) (.[Ac].[Ac].[Ac])!p! (.[_Ac].[AB].[Ac]) | (dBA dBA cB=A) | %8
!<(! (dBF dBF dB_F)!<)! |!>(! (dB_F dBE)!>)!!<(! [EAc][EGB][EA]!<)! | %10
!f!!>(! e3 B3!>)!!<(! [FBd][F=Ac][FB]!<)! | (f3 c3) c3 |!f! (.=e3 .f3 ._e3) | %13
!>(! (._d3 .c3 .B3)!>)! |!p! [F_A]6- [FA]3 |!pp! E6-!>(! [=DE-A-]3 | ([_D-E-A]6 ([DE-G]3)!>)! | %17
 !fermata![CEA]3-) [CEA] z :|!f! c (cBA) | !>!e6- e3- | e3 z2 [EAc]!<(! [EAc][EGB][EA]!<)! | %21
!f!!>(! (e3 B3)!>)!!<(! [FBd][F=Ac][FB]!<)! |!f! f3 c3!p! (.[=Ac].[ce].[Bd]) | %23
 (.[=Ac].[Ac].[Ac]) (.[Ac].[Ac].[Ac]) (.[Ac].[ce].[Bd]) | %24
 (.[=Ac].[Ac].[Ac]) (.[Ac].[Ac].[Ac])!p! (.[_Ac].[AB].[Ac]) | (dBA dBA!<(! cB=A)!<)! | %26
 (d!<(!BF dBF dB_F)!<)! |!>(! (dB_F dBE)!>)!!<(! [EAc][EGB][EA]!<)! | %28
!f!!>(! e3 B3!>)!!<(! [FBd][F=Ac][FB]!<)! |"_cresc." (f3 c3) c3 |!f! (.=e3 .f3 ._e3) | %31
!>(! (._d3 .c3 .B3)!>)! |!p! [F_A]6- [FA]3 |!pp! (E6-!>(! [=DE-A-]3) | [_D-E-A]6 ([DE-G]3!>)! | %35
 !fermata![CEA]3-) [CEA] z |] %36
V:4
 C (CB,A,) | z2 (C B,2 C E2 D) | [E,D]3 z2 z [A,,E,-A,][B,,E,B,][C,E,C] | %3
 [D,E,D]3- [D,E,D]2 z [B,,F,-B,][C,F,C][D,F,D] | [E,F,E]3- [E,F,E]2 z!<(! (E2 F!<)! | %5
!>(! !>!_G3 F2) z!>)!!<(! (E2 F!<)! | !>!_G6-) G3 | F6 [F,E]3 |"^poco rit." B,6 A,3- | %9
 (A,3 .G,2) z [A,,E,-A,][B,,E,B,][C,E,C] | [D,E,D]3- [D,E,D]2 z [B,,F,-B,][C,F,C][D,F,D] | %11
 F,3 _G,3 _A,3 | [D,-A,]6 [D,=A,]3 | B,3 C3 D3 |"^rit." [=D,_C]6- [D,C]3 | [E,-=C]6 [E,-_C]3 | %16
 [E,B,]6- ([E,-B,]3 | !fermata![A,,E,A,]3-) [A,,E,A,] z :| C (CB,A,) | z2 (C B,2 C E2 D) | %20
 D3 z2 z [A,,E,-A,][B,,E,B,][C,E,C] | [D,E,D]3- [D,E,D]2 z [B,,F,-B,][C,F,C][D,F,D] | %22
 [E,F,E]3- [E,F,E]2 z!<(! (E2 F!<)! |!>(! !>!_G3 F2)!>)! z!<(! (E2 F!<)! |!>(! _G6-)!>)! G3 | %25
 F6 [F,E]3 |"^poco rit." B,6 A,3- | (A,3 G,2) z [A,,E,-A,][B,,E,B,][C,E,C] | %28
 [D,E,D]3- [D,E,D]2 z [B,,F,-B,][C,F,C][C,E,D] | F,3 _G,3 _A,3 | [D,-A,]6 [D,=A,]3 | B,3 C3 D3 | %32
"^rit." [=D,_C]6- [D,C]3 | ([E,-=C]6 [E,-_C]3) | [E,B,]6- ([E,-B,]3 | %35
 !fermata![A,,E,A,]3-) [A,,E,A,] z |] %36
V:5
 x4 | z2 (A G2 A c2 B) | B3 x2 x4 | [EA][EA][EA] [EG][EG][EG] x3 | [FB][FB][FB] [F=A][FA][FA] x3 | %5
 x9 | x9 | x9 | x9 | x9 | [EA][EA][EA] [EG][EG][EG] x3 | %11
 [FB][FB]"_cresc."[FB] [_G=A][GA][GA] [G_A][GA][GA] | =ec_G fdF _ecG | dBF c=AF B_GF | x9 | x9 | %16
 x9 | x5 :| x4 | z2 (A G2 A c2!>(! B) | B3!>)! x2 x4 | [EA][EA][EA] [EG][EG][EG] x3 | %22
 [FB][FB][FB] [F=A][FA][FA] x3 | x9 | x9 | x9 | x9 | x9 | [EA][EA][EA] [EG][EG][EG] x3 | %29
 [FB][FB][FB] [_G=A][GA][GA] [G_A][GA][GA] | =ec_G fdF _ecG | dBF c=AF B_GF | x9 | x9 | x9 | x5 |] %36
V:6
 x4 | E,6- E,3- | x9 | x9 | x9 | x9 | x9 | x9 | D3 x6 | x9 | x9 | [E,E]6- [E,E]3 | x9 | D,6- D,3 | %14
 x9 | x9 | x9 | x5 :| x4 | E,6- E,3- | E,3 x2 x x3 | x9 | x9 | x9 | x9 | x9 | D3 x6 | x9 | x9 | %29
 [E,E]6- [E,E]3 | x9 | D,6- D,3 | x9 | x9 | x9 | x5 |] %36

